src/icons/solid/symbols/lock-unlock.svg

<svg width="24" height="24" viewBox="0 0 24 24" fill="none" xmlns="http://www.w3.org/2000/svg">
<g clip-path="url(#clip0_402_695)">
<path d="M19.1047 9.02127H18.3953V7.41672C18.3953 3.88024 15.5471 1.01083 12.0106 1.00024C9.17294 1.00024 6.67412 2.85319 5.86941 5.57436C5.67882 6.19907 6.03882 6.86613 6.66353 7.05672C7.28824 7.2473 7.95529 6.8873 8.13529 6.2626C8.78118 4.12377 11.0259 2.91671 13.1541 3.5626C14.8588 4.07083 16.0235 5.63789 16.0235 7.41672V8.5448C16.0235 8.8095 15.8118 9.02127 15.5471 9.02127H4.89529C3.84706 9.02127 3 9.86833 3 10.9166V21.1048C3 22.153 3.84706 23.0001 4.89529 23.0001H19.1047C20.1424 23.0001 21 22.153 21 21.1048V10.9166C21 9.86833 20.1424 9.02127 19.1047 9.02127ZM12 17.8413C10.8353 17.8413 9.88235 16.8883 9.88235 15.7236C9.88235 14.5589 10.8353 13.606 12 13.606C13.1647 13.606 14.1176 14.5483 14.1176 15.7236C14.1176 16.8989 13.1753 17.8413 12 17.8413Z" fill="#212121"/>
</g>
<defs>
<clipPath id="clip0_402_695">
<rect width="24" height="24" fill="white"/>
</clipPath>
</defs>
</svg>

<svg xmlns="http://www.w3.org/2000/svg" width="24" height="24" fill="none" viewBox="0 0 24 24"><g clip-path="url(#a)"><path fill="currentColor" d="M19.105 9.021h-.71V7.417A6.405 6.405 0 0 0 12.011 1a6.39 6.39 0 0 0-6.142 4.574c-.19.625.17 1.292.795 1.483.624.19 1.291-.17 1.471-.794a4.023 4.023 0 0 1 5.02-2.7 4.02 4.02 0 0 1 2.868 3.854v1.128a.474.474 0 0 1-.476.476H4.895A1.893 1.893 0 0 0 3 10.917v10.188C3 22.153 3.847 23 4.895 23h14.21A1.9 1.9 0 0 0 21 21.105V10.917a1.9 1.9 0 0 0-1.895-1.896M12 17.841a2.124 2.124 0 0 1-2.118-2.117 2.117 2.117 0 1 1 4.235 0A2.11 2.11 0 0 1 12 17.84"/></g><defs><clipPath id="a"><path fill="currentColor" d="M0 0h24v24H0z"/></clipPath></defs></svg>
